;FLAVOR:UltiGCode
;TIME:6958
;MATERIAL:12506
;MATERIAL2:0
;NOZZLE_DIAMETER:0.4
;Generated with Cura_SteamEngine 3.6.0
M82 ;absolute extrusion mode

G92 E0
G10
;LAYER_COUNT:103
;LAYER:0
M107
G0 F4500 X98.646 Y63.597 Z0.27
;TYPE:SKIRT
G11
G1 F1800 X99.129 Y62.968 E0.07494
G1 X99.674 Y62.391 E0.14995
G1 X100.273 Y61.871 E0.22491
G1 X100.922 Y61.415 E0.29986
G1 X101.614 Y61.026 E0.37488
G1 X102.341 Y60.708 E0.44987
G1 X103.097 Y60.465 E0.52491
G1 X103.873 Y60.3 E0.59988
G1 X104.661 Y60.214 E0.67479
G1 X105.124 Y60.2 E0.71856
G1 X200.124 Y60.2 E9.69606
G1 X200.916 Y60.24 E9.771
G1 X201.701 Y60.359 E9.84603
G1 X202.469 Y60.557 E9.92098
G1 X203.214 Y60.832 E9.99603
G1 X203.927 Y61.179 E10.07096
G1 X204.602 Y61.597 E10.14599
G1 X205.231 Y62.08 E10.22093
G1 X205.808 Y62.625 E10.29594
G1 X206.328 Y63.224 E10.3709
G1 X206.784 Y63.873 E10.44585
G1 X207.173 Y64.565 E10.52087
G1 X207.491 Y65.292 E10.59586
G1 X207.734 Y66.048 E10.6709
G1 X207.899 Y66.824 E10.74587
G1 X207.985 Y67.612 E10.82078
G1 X207.999 Y68.075 E10.86455
G1 X207.999 Y107.075 E14.55005
G1 X207.959 Y107.867 E14.62499
G1 X207.84 Y108.652 E14.70002
G1 X207.642 Y109.42 E14.77497
G1 X207.367 Y110.165 E14.85001
G1 X207.02 Y110.878 E14.92495
G1 X206.602 Y111.553 E14.99998
G1 X206.119 Y112.182 E15.07492
G1 X205.574 Y112.759 E15.14992
G1 X204.975 Y113.279 E15.22488
G1 X204.326 Y113.735 E15.29984
G1 X203.634 Y114.124 E15.37486
G1 X202.907 Y114.442 E15.44984
G1 X202.151 Y114.685 E15.52489
G1 X201.375 Y114.85 E15.59986
G1 X200.587 Y114.936 E15.67477
G1 X200.124 Y114.95 E15.71854
G1 X105.124 Y114.95 E24.69604
G1 X104.332 Y114.91 E24.77098
G1 X103.547 Y114.791 E24.84601
G1 X102.779 Y114.593 E24.92096
G1 X102.034 Y114.318 E24.996
G1 X101.321 Y113.971 E25.07094
G1 X100.646 Y113.553 E25.14597
G1 X100.017 Y113.07 E25.22091
G1 X99.44 Y112.525 E25.29591
G1 X98.92 Y111.926 E25.37087
G1 X98.464 Y111.277 E25.44583
G1 X98.075 Y110.585 E25.52085
G1 X97.757 Y109.858 E25.59583
G1 X97.514 Y109.102 E25.67087
G1 X97.349 Y108.326 E25.74585
G1 X97.263 Y107.538 E25.82075
G1 X97.249 Y107.075 E25.86453
G1 X97.249 Y68.075 E29.55003
G1 X97.289 Y67.283 E29.62497
G1 X97.408 Y66.498 E29.7
G1 X97.606 Y65.73 E29.77495
G1 X97.881 Y64.985 E29.84999
G1 X98.228 Y64.272 E29.92493
G1 X98.646 Y63.597 E29.99995
G0 F4500 X98.994 Y63.711
G1 F1800 X99.476 Y63.103 E30.07327
G1 X100.018 Y62.548 E30.14658
G1 X100.614 Y62.051 E30.21992
G1 X101.258 Y61.619 E30.2932
G1 X101.943 Y61.256 E30.36646
G1 X102.662 Y60.964 E30.4398
G1 X103.407 Y60.749 E30.51307
G1 X104.17 Y60.611 E30.58634
G1 X105.124 Y60.55 E30.67668
G1 X200.124 Y60.55 E39.65418
G1 X200.899 Y60.59 E39.72752
G1 X201.665 Y60.709 E39.80077
G1 X202.415 Y60.907 E39.87407
G1 X203.141 Y61.181 E39.94741
G1 X203.834 Y61.528 E40.02065
G1 X204.488 Y61.945 E40.09394
G1 X205.096 Y62.427 E40.16726
G1 X205.651 Y62.969 E40.24057
G1 X206.148 Y63.565 E40.31391
G1 X206.58 Y64.209 E40.38719
G1 X206.943 Y64.894 E40.46045
G1 X207.235 Y65.613 E40.53378
G1 X207.45 Y66.358 E40.60706
G1 X207.588 Y67.121 E40.68033
G1 X207.649 Y68.075 E40.77067
G1 X207.649 Y107.075 E44.45617
G1 X207.609 Y107.85 E44.5295
G1 X207.49 Y108.616 E44.60276
G1 X207.292 Y109.366 E44.67606
G1 X207.018 Y110.092 E44.74939
G1 X206.671 Y110.785 E44.82263
G1 X206.254 Y111.439 E44.89593
G1 X205.772 Y112.047 E44.96925
G1 X205.23 Y112.602 E45.04256
G1 X204.634 Y113.099 E45.11589
G1 X203.99 Y113.531 E45.18918
G1 X203.305 Y113.894 E45.26244
G1 X202.586 Y114.186 E45.33577
G1 X201.841 Y114.401 E45.40905
G1 X201.078 Y114.539 E45.48232
G1 X200.124 Y114.6 E45.57266
G1 X105.124 Y114.6 E54.55016
G1 X104.349 Y114.56 E54.62349
G1 X103.583 Y114.441 E54.69675
G1 X102.833 Y114.243 E54.77005
G1 X102.107 Y113.969 E54.84338
G1 X101.414 Y113.622 E54.91662
G1 X100.76 Y113.205 E54.98992
G1 X100.152 Y112.723 E55.06324
G1 X99.597 Y112.181 E55.13655
G1 X99.1 Y111.585 E55.20988
G1 X98.668 Y110.941 E55.28316
G1 X98.305 Y110.256 E55.35642
G1 X98.013 Y109.537 E55.42976
G1 X97.798 Y108.792 E55.50304
G1 X97.66 Y108.029 E55.57631
G1 X97.599 Y107.075 E55.66665
G1 X97.599 Y68.075 E59.35215
G1 X97.639 Y67.3 E59.42548
G1 X97.758 Y66.534 E59.49874
G1 X97.956 Y65.784 E59.57204
G1 X98.23 Y65.058 E59.64537
G1 X98.577 Y64.365 E59.71861
G1 X98.994 Y63.711 E59.79191
G0 F4500 X99.342 Y63.827
G1 F1800 X99.822 Y63.241 E59.86349
G1 X100.361 Y62.709 E59.93506
G1 X100.953 Y62.237 E60.00661
G1 X101.592 Y61.83 E60.0782
G1 X102.27 Y61.492 E60.14979
G1 X102.979 Y61.228 E60.22129
G1 X103.713 Y61.04 E60.29289
G1 X104.462 Y60.931 E60.36441
G1 X105.124 Y60.9 E60.42704
G1 X200.124 Y60.9 E69.40454
G1 X200.88 Y60.94 E69.47608
G1 X201.628 Y61.059 E69.54766
G1 X202.359 Y61.257 E69.61923
G1 X203.066 Y61.531 E69.69088
G1 X203.739 Y61.877 E69.76239
G1 X204.372 Y62.293 E69.83397
G1 X204.958 Y62.773 E69.90555
G1 X205.49 Y63.312 E69.97712
G1 X205.962 Y63.904 E70.04867
G1 X206.369 Y64.543 E70.12027
G1 X206.707 Y65.221 E70.19186
G1 X206.971 Y65.93 E70.26335
G1 X207.159 Y66.664 E70.33495
G1 X207.268 Y67.413 E70.40648
G1 X207.299 Y68.075 E70.46911
G1 X207.299 Y107.075 E74.15461
G1 X207.259 Y107.831 E74.22615
G1 X207.14 Y108.579 E74.29772
G1 X206.942 Y109.31 E74.36929
G1 X206.668 Y110.017 E74.44095
G1 X206.322 Y110.69 E74.51246
G1 X205.906 Y111.323 E74.58404
G1 X205.426 Y111.909 E74.65562
G1 X204.887 Y112.441 E74.72719
G1 X204.295 Y112.913 E74.79874
G1 X203.656 Y113.32 E74.87033
G1 X202.978 Y113.658 E74.94192
G1 X202.269 Y113.922 E75.01342
G1 X201.535 Y114.11 E75.08502
G1 X200.786 Y114.219 E75.15654
G1 X200.124 Y114.25 E75.21917
G1 X105.124 Y114.25 E84.19667
G1 X104.368 Y114.21 E84.26821
G1 X103.62 Y114.091 E84.33979
G1 X102.889 Y113.893 E84.41136
G1 X102.182 Y113.619 E84.48301
G1 X101.509 Y113.273 E84.55452
G1 X100.876 Y112.857 E84.6261
G1 X100.29 Y112.377 E84.69769
G1 X99.758 Y111.838 E84.76925
G1 X99.286 Y111.246 E84.8408
G1 X98.879 Y110.607 E84.9124
G1 X98.541 Y109.929 E84.98399
G1 X98.277 Y109.22 E85.05548
G1 X98.089 Y108.486 E85.12708
G1 X97.98 Y107.737 E85.19861
G1 X97.949 Y107.075 E85.26124
G1 X97.949 Y68.075 E88.94674
G1 X97.989 Y67.319 E89.01828
G1 X98.108 Y66.571 E89.08985
G1 X98.306 Y65.84 E89.16142
G1 X98.58 Y65.133 E89.23308
G1 X98.926 Y64.46 E89.30459
G1 X99.342 Y63.827 E89.37617
G0 F4500 X99.689 Y63.946
G1 F1800 X100.167 Y63.383 E89.44596
G1 X100.703 Y62.875 E89.51575
G1 X101.291 Y62.428 E89.58555
G1 X101.924 Y62.047 E89.65536
G1 X102.594 Y61.736 E89.72517
G1 X103.294 Y61.5 E89.79498
G1 X104.015 Y61.341 E89.86475
G1 X104.75 Y61.26 E89.93463
G1 X105.124 Y61.25 E89.96998
G1 X200.124 Y61.25 E98.94748
G1 X200.862 Y61.29 E99.01733
G1 X201.59 Y61.409 E99.08703
G1 X202.302 Y61.607 E99.15687
G1 X202.988 Y61.88 E99.22664
G1 X203.641 Y62.226 E99.29648
G1 X204.253 Y62.64 E99.3663
G1 X204.816 Y63.118 E99.4361
G1 X205.324 Y63.654 E99.50588
G1 X205.771 Y64.242 E99.57568
G1 X206.152 Y64.875 E99.6455
G1 X206.463 Y65.545 E99.7153
G1 X206.699 Y66.245 E99.78511
G1 X206.858 Y66.966 E99.85488
G1 X206.939 Y67.701 E99.92476
G1 X206.949 Y68.075 E99.96012
G1 X206.949 Y107.075 E103.64562
G1 X206.909 Y107.813 E103.71546
G1 X206.79 Y108.541 E103.78517
G1 X206.592 Y109.253 E103.85501
G1 X206.319 Y109.939 E103.92478
G1 X205.973 Y110.592 E103.99461
G1 X205.559 Y111.204 E104.06444
G1 X205.081 Y111.767 E104.13423
G1 X204.545 Y112.275 E104.20402
G1 X203.957 Y112.722 E104.27382
G1 X203.324 Y113.103 E104.34363
G1 X202.654 Y113.414 E104.41344
G1 X201.954 Y113.65 E104.48325
G1 X201.233 Y113.809 E104.55302
G1 X200.498 Y113.89 E104.6229
G1 X200.124 Y113.9 E104.65825
G1 X105.124 Y113.9 E113.63575
G1 X104.386 Y113.86 E113.7056
G1 X103.658 Y113.741 E113.7753
G1 X102.946 Y113.543 E113.84514
G1 X102.26 Y113.27 E113.91491
G1 X101.607 Y112.924 E113.98475
G1 X100.995 Y112.51 E114.05457
G1 X100.432 Y112.032 E114.12437
G1 X99.924 Y111.496 E114.19415
G1 X99.477 Y110.908 E114.26395
G1 X99.096 Y110.275 E114.33377
G1 X98.785 Y109.605 E114.40357
G1 X98.549 Y108.905 E114.47338
G1 X98.39 Y108.184 E114.54315
G1 X98.309 Y107.449 E114.61303
G1 X98.299 Y107.075 E114.64839
G1 X98.299 Y68.075 E118.33389
G1 X98.339 Y67.337 E118.40373
G1 X98.458 Y66.609 E118.47344
G1 X98.656 Y65.897 E118.54328
G1 X98.929 Y65.211 E118.61305
G1 X99.275 Y64.558 E118.68288
G1 X99.689 Y63.946 E118.75271
G0 F4500 X99.624 Y64.658
G1 F1800 X100.037 Y64.069 E118.82069
G1 X100.513 Y63.53 E118.88864
G1 X101.045 Y63.046 E118.95661
G1 X101.628 Y62.625 E119.02457
G1 X102.255 Y62.271 E119.09261
G1 X102.916 Y61.988 E119.16056
G1 X103.605 Y61.781 E119.22854
G1 X104.313 Y61.651 E119.29657
G1 X105.124 Y61.6 E119.37336
G1 X200.124 Y61.6 E128.35086
G1 X200.842 Y61.64 E128.41881
G1 X201.552 Y61.759 E128.48685
G1 X202.244 Y61.957 E128.55486
G1 X202.909 Y62.23 E128.6228
G1 X203.541 Y62.575 E128.69084
G1 X204.13 Y62.988 E128.75882
G1 X204.669 Y63.464 E128.82677
G1 X205.153 Y63.996 E128.89474
G1 X205.574 Y64.579 E128.9627
G1 X205.928 Y65.206 E129.03074
G1 X206.211 Y65.867 E129.09869
G1 X206.418 Y66.556 E129.16667
G1 X206.548 Y67.264 E129.2347
G1 X206.599 Y68.075 E129.31149
G1 X206.599 Y107.075 E132.99699
G1 X206.559 Y107.793 E133.06495
G1 X206.44 Y108.503 E133.13298
G1 X206.242 Y109.195 E133.20099
G1 X205.969 Y109.86 E133.26893
G1 X205.624 Y110.492 E133.33697
G1 X205.211 Y111.081 E133.40495
G1 X204.735 Y111.62 E133.4729
G1 X204.203 Y112.104 E133.54087
G1 X203.62 Y112.525 E133.60883
G1 X202.993 Y112.879 E133.67687
G1 X202.332 Y113.162 E133.74482
G1 X201.643 Y113.369 E133.8128
G1 X200.935 Y113.499 E133.88083
G1 X200.124 Y113.55 E133.95762
G1 X105.124 Y113.55 E142.93512
G1 X104.406 Y113.51 E143.00308
G1 X103.696 Y113.391 E143.07111
G1 X103.004 Y113.193 E143.13913
G1 X102.339 Y112.92 E143.20706
G1 X101.707 Y112.575 E143.2751
G1 X101.118 Y112.162 E143.34308
G1 X100.579 Y111.686 E143.41104
G1 X100.095 Y111.154 E143.479
G1 X99.674 Y110.571 E143.54696
G1 X99.32 Y109.944 E143.615
G1 X99.037 Y109.283 E143.68295
G1 X98.83 Y108.594 E143.75094
G1 X98.7 Y107.886 E143.81896
G1 X98.649 Y107.075 E143.89575
G1 X98.649 Y68.075 E147.58125
G1 X98.689 Y67.357 E147.64921
G1 X98.808 Y66.647 E147.71724
G1 X99.006 Y65.955 E147.78526
G1 X99.279 Y65.29 E147.85319
G1 X99.624 Y64.658 E147.92123
G0 F4500 X99.972 Y64.762
G1 F1800 X100.384 Y64.196 E147.98739
G1 X100.857 Y63.681 E148.05347
G1 X101.386 Y63.223 E148.11959
G1 X101.964 Y62.828 E148.18575
G1 X102.583 Y62.502 E148.25186
G1 X103.235 Y62.248 E148.31798
G1 X103.912 Y62.071 E148.38411
G1 X104.605 Y61.972 E148.45026
G1 X105.124 Y61.95 E148.49935
G1 X200.124 Y61.95 E157.47685
G1 X200.823 Y61.99 E157.54302
G1 X201.512 Y62.109 E157.60909
G1 X202.183 Y62.307 E157.6752
G1 X202.828 Y62.579 E157.74136
G1 X203.437 Y62.923 E157.80745
G1 X204.003 Y63.335 E157.87361
G1 X204.518 Y63.808 E157.93969
G1 X204.976 Y64.337 E158.00581
G1 X205.371 Y64.915 E158.07197
G1 X205.697 Y65.534 E158.13808
G1 X205.951 Y66.186 E158.20421
G1 X206.128 Y66.863 E158.27033
G1 X206.227 Y67.556 E158.33649
G1 X206.249 Y68.075 E158.38558
G1 X206.249 Y107.075 E162.07108
G1 X206.209 Y107.774 E162.13724
G1 X206.09 Y108.463 E162.20331
G1 X205.892 Y109.134 E162.26943
G1 X205.62 Y109.779 E162.33558
G1 X205.276 Y110.388 E162.40167
G1 X204.864 Y110.954 E162.46783
G1 X204.391 Y111.469 E162.53391
G1 X203.862 Y111.927 E162.60003
G1 X203.284 Y112.322 E162.66619
G1 X202.665 Y112.648 E162.7323
G1 X202.013 Y112.902 E162.79843
G1 X201.336 Y113.079 E162.86455
G1 X200.643 Y113.178 E162.93071
G1 X200.124 Y113.2 E162.9798
G1 X105.124 Y113.2 E171.9573
G1 X104.425 Y113.16 E172.02346
G1 X103.736 Y113.041 E172.08953
G1 X103.065 Y112.843 E172.15565
G1 X102.42 Y112.571 E172.2218
G1 X101.811 Y112.227 E172.2879
G1 X101.245 Y111.815 E172.35405
G1 X100.73 Y111.342 E172.42013
G1 X100.272 Y110.813 E172.48625
G1 X99.877 Y110.235 E172.55241
G1 X99.551 Y109.616 E172.61852
G1 X99.297 Y108.964 E172.68465
G1 X99.12 Y108.287 E172.75078
G1 X99.021 Y107.594 E172.81693
G1 X98.999 Y107.075 E172.86602
G1 X98.999 Y68.075 E176.55152
G1 X99.039 Y67.376 E176.61768
G1 X99.158 Y66.687 E176.68376
G1 X99.356 Y66.016 E176.74987
G1 X99.628 Y65.371 E176.81602
G1 X99.972 Y64.762 E176.88212
G0 F4500 X100.321 Y64.869
G1 F1800 X100.731 Y64.327 E176.94634
G1 X101.201 Y63.837 E177.0105
G1 X101.726 Y63.406 E177.07469
G1 X102.298 Y63.039 E177.13891
G1 X102.909 Y62.742 E177.20311
G1 X103.551 Y62.518 E177.26737
G1 X104.214 Y62.372 E177.33152
G1 X105.124 Y62.3 E177.41779
G1 X200.124 Y62.3 E186.39529
G1 X200.802 Y62.34 E186.45947
G1 X201.471 Y62.459 E186.52368
G1 X202.121 Y62.656 E186.58787
G1 X202.744 Y62.928 E186.65211
G1 X203.33 Y63.272 E186.71632
G1 X203.872 Y63.682 E186.78054
G1 X204.362 Y64.152 E186.84471
G1 X204.793 Y64.677 E186.9089
G1 X205.16 Y65.249 E186.97312
G1 X205.457 Y65.86 E187.03732
G1 X205.681 Y66.502 E187.10158
G1 X205.827 Y67.165 E187.16573
G1 X205.899 Y68.075 E187.25199
G1 X205.899 Y107.075 E190.93749
G1 X205.859 Y107.753 E191.00168
G1 X205.74 Y108.422 E191.06589
G1 X205.543 Y109.072 E191.13007
G1 X205.271 Y109.695 E191.19431
G1 X204.927 Y110.281 E191.25853
G1 X204.517 Y110.823 E191.32275
G1 X204.047 Y111.313 E191.38691
G1 X203.522 Y111.744 E191.4511
G1 X202.95 Y112.111 E191.51532
G1 X202.339 Y112.408 E191.57952
G1 X201.697 Y112.632 E191.64378
G1 X201.034 Y112.778 E191.70793
G1 X200.124 Y112.85 E191.7942
G1 X105.124 Y112.85 E200.7717
G1 X104.446 Y112.81 E200.83588
G1 X103.777 Y112.691 E200.90009
G1 X103.127 Y112.494 E200.96428
G1 X102.504 Y112.222 E201.02852
G1 X101.918 Y111.878 E201.09273
G1 X101.376 Y111.468 E201.15695
G1 X100.886 Y110.998 E201.22112
G1 X100.455 Y110.473 E201.28531
G1 X100.088 Y109.901 E201.34953
G1 X99.791 Y109.29 E201.41373
G1 X99.567 Y108.648 E201.47799
G1 X99.421 Y107.985 E201.54214
G1 X99.349 Y107.075 E201.6284
G1 X99.349 Y68.075 E205.3139
G1 X99.389 Y67.397 E205.37809
G1 X99.508 Y66.728 E205.4423
G1 X99.705 Y66.078 E205.50648
G1 X99.977 Y65.455 E205.57072
G1 X100.321 Y64.869 E205.63494
G0 F4500 X100.669 Y64.979
G1 F1800 X101.077 Y64.462 E205.69717
G1 X101.544 Y63.999 E205.75932
G1 X102.065 Y63.595 E205.82162
G1 X102.63 Y63.257 E205.88384
G1 X103.232 Y62.991 E205.94603
G1 X103.862 Y62.799 E206.00827
G1 X104.51 Y62.685 E206.07045
G1 X105.124 Y62.65 E206.12857
G1 X200.124 Y62.65 E215.10607
G1 X200.781 Y62.69 E215.16827
G1 X201.429 Y62.809 E215.23053
G1 X202.057 Y63.006 E215.29272
G1 X202.657 Y63.278 E215.35498
G1 X203.22 Y63.62 E215.41723
G1 X203.737 Y64.028 E215.47947
G1 X204.2 Y64.495 E215.54161
G1 X204.604 Y65.016 E215.60391
G1 X204.942 Y65.581 E215.66613
G1 X205.208 Y66.183 E215.72833
G1 X205.4 Y66.813 E215.79056
G1 X205.514 Y67.461 E215.85274
G1 X205.549 Y68.075 E215.91086
G1 X205.549 Y107.075 E219.59636
G1 X205.509 Y107.732 E219.65856
G1 X205.39 Y108.38 E219.72082
G1 X205.193 Y109.008 E219.78302
G1 X204.921 Y109.608 E219.84527
G1 X204.579 Y110.171 E219.90752
G1 X204.171 Y110.688 E219.96976
G1 X203.704 Y111.151 E220.0319
G1 X203.183 Y111.555 E220.09421
G1 X202.618 Y111.893 E220.15642
G1 X202.016 Y112.159 E220.21862
G1 X201.386 Y112.351 E220.28086
G1 X200.738 Y112.465 E220.34303
G1 X200.124 Y112.5 E220.40115
G1 X105.124 Y112.5 E229.37865
G1 X104.467 Y112.46 E229.44085
G1 X103.819 Y112.341 E229.50311
G1 X103.191 Y112.144 E229.56531
G1 X102.591 Y111.872 E229.62756
G1 X102.028 Y111.53 E229.68981
G1 X101.511 Y111.122 E229.75205
G1 X101.048 Y110.655 E229.8142
G1 X100.644 Y110.134 E229.8765
G1 X100.306 Y109.569 E229.93872
G1 X100.04 Y108.967 E230.00091
G1 X99.848 Y108.337 E230.06315
G1 X99.734 Y107.689 E230.12533
G1 X99.699 Y107.075 E230.18344
G1 X99.699 Y68.075 E233.86894
G1 X99.739 Y67.418 E233.93115
G1 X99.858 Y66.77 E233.99341
G1 X100.055 Y66.142 E234.0556
G1 X100.327 Y65.542 E234.11786
G1 X100.669 Y64.979 E234.18011
G0 F4500 X101.017 Y65.094
G1 F1800 X101.423 Y64.603 E234.24032
G1 X101.887 Y64.167 E234.30048
G1 X102.402 Y63.792 E234.36069
G1 X102.959 Y63.485 E234.42079
G1 X103.551 Y63.25 E234.48098
G1 X104.168 Y63.091 E234.54119
G1 X104.8 Y63.01 E234.6014
G1 X105.124 Y63 E234.63204
G1 X200.124 Y63 E243.60954
G1 X200.76 Y63.04 E243.66976
G1 X201.385 Y63.159 E243.72988
G1 X201.991 Y63.356 E243.7901
G1 X202.567 Y63.627 E243.85025
G1 X203.105 Y63.968 E243.91045
G1 X203.596 Y64.374 E243.97065
G1 X204.032 Y64.838 E244.03082
G1 X204.407 Y65.353 E244.09102
G1 X204.714 Y65.91 E244.15113
